public/icons/maps-logo.svg

<svg width="20" height="29" viewBox="0 0 20 29" fill="none" xmlns="http://www.w3.org/2000/svg">
<g clip-path="url(#clip0_96_82)">
<path d="M5.5144 21.4824C6.34358 22.5513 7.09829 23.6772 7.77308 24.852C8.34917 25.9568 8.58933 26.706 9.01034 28.0372C9.26854 28.7727 9.5019 28.9923 10.0036 28.9923C10.5503 28.9923 10.7984 28.6188 10.99 28.0413C11.388 26.7841 11.7003 25.8246 12.1929 24.918C13.1596 23.1678 14.3609 21.6124 15.5412 20.1176C15.8607 19.6946 17.9267 17.2299 18.8567 15.2851C18.8567 15.2851 19.9999 13.1489 19.9999 10.1653C19.9999 7.37454 18.8725 5.43896 18.8725 5.43896L15.6268 6.31813L13.6557 11.569L13.1681 12.2931L13.0706 12.4243L12.9409 12.5885L12.7132 12.8507L12.3879 13.1797L10.6327 14.626L6.2444 17.1888L5.5144 21.4824Z" fill="#34A853"/>
<path d="M0.985352 14.926C2.05637 17.4003 4.12168 19.5754 5.51902 21.4842L12.941 12.5918C12.941 12.5918 11.8954 13.975 9.99863 13.975C7.8859 13.975 6.1791 12.2686 6.1791 10.1169C6.1791 8.64134 7.05676 7.62769 7.05676 7.62769L2.01855 8.99313L0.985352 14.926Z" fill="#FBBC04"/>
<path d="M13.0239 0.457275C15.4889 1.26114 17.5987 2.94875 18.8749 5.43729L12.9432 12.5868C12.9432 12.5868 13.8209 11.5548 13.8209 10.0884C13.8209 7.88665 11.9879 6.24179 10.0076 6.24179C8.13504 6.24179 7.05957 7.62265 7.05957 7.62265V3.11856L13.0239 0.457275Z" fill="#4285F4"/>
<path d="M2.34497 3.61631C3.81724 1.83466 6.40786 0 9.97942 0C11.7122 0 13.0177 0.460128 13.0177 0.460128L7.05396 7.62661H2.82856L2.34497 3.61631Z" fill="#1A73E8"/>
<path d="M0.985313 14.926C0.985313 14.926 0 12.9744 0 10.1471C0 7.47487 1.02703 5.13907 2.34492 3.61621L7.05727 7.62714L0.985313 14.926Z" fill="#EA4335"/>
</g>
<defs>
<clipPath id="clip0_96_82">
<rect width="20" height="29" fill="white"/>
</clipPath>
</defs>
</svg>

<svg xmlns="http://www.w3.org/2000/svg" width="20" height="29" fill="none"><g clip-path="url(#a)"><path fill="#34A853" d="M5.514 21.482a29 29 0 0 1 2.26 3.37c.575 1.105.815 1.854 1.236 3.185.259.736.492.955.994.955.546 0 .794-.373.986-.95.398-1.258.71-2.217 1.203-3.124.967-1.75 2.168-3.306 3.348-4.8.32-.423 2.386-2.888 3.316-4.833 0 0 1.143-2.136 1.143-5.12 0-2.79-1.128-4.726-1.128-4.726l-3.245.88-1.971 5.25-.488.724-.097.131-.13.165-.228.262-.325.329-1.755 1.446-4.389 2.563z"/><path fill="#FBBC04" d="M.985 14.926c1.071 2.474 3.137 4.65 4.534 6.558l7.422-8.892s-1.046 1.383-2.942 1.383c-2.113 0-3.82-1.706-3.82-3.858 0-1.476.878-2.49.878-2.49L2.019 8.994z"/><path fill="#4285F4" d="M13.024.457c2.465.804 4.575 2.492 5.85 4.98l-5.93 7.15s.877-1.032.877-2.499c0-2.201-1.833-3.846-3.813-3.846-1.873 0-2.948 1.38-2.948 1.38V3.12z"/><path fill="#1A73E8" d="M2.345 3.616C3.817 1.835 6.408 0 9.979 0c1.733 0 3.039.46 3.039.46L7.054 7.627H2.829z"/><path fill="#EA4335" d="M.985 14.926S0 12.974 0 10.147c0-2.672 1.027-5.008 2.345-6.53l4.712 4.01z"/></g><defs><clipPath id="a"><path fill="#fff" d="M0 0h20v29H0z"/></clipPath></defs></svg>
